packages/kaspersky-hexa-ui-icons/src/iconsSVGs/24/ToolSolid1.svg

<svg width="16" height="16" viewBox="0 0 16 16" fill="none" xmlns="http://www.w3.org/2000/svg">
<path d="M8.60741 3.12636C7.35867 1.87762 5.48514 1.63588 3.99435 2.39956C3.74704 2.52624 3.71077 2.84948 3.89589 3.0346L6.38649 5.52521L5.39654 6.51515L2.90594 4.02455C2.72082 3.83943 2.39758 3.8757 2.27089 4.12301C1.50722 5.61381 1.74896 7.48733 2.9977 8.73608C4.04107 9.77945 5.52077 10.1197 6.84827 9.75822L11.0996 14.0095C11.4771 14.387 12.0892 14.387 12.4667 14.0095L13.8809 12.5953C14.2584 12.2178 14.2584 11.6058 13.8809 11.2282L9.62955 6.97693C9.99101 5.64944 9.65079 4.16973 8.60741 3.12636Z" fill="black"/>
</svg>

<svg xmlns="http://www.w3.org/2000/svg" width="16" height="16" fill="none" viewBox="0 0 16 16"><path fill="#000" d="M8.6074 3.1264c-1.2487-1.2488-3.1223-1.4905-4.613-.7268-.2474.1266-.2836.4499-.0985.635l2.4906 2.4906-.99.99L2.906 4.0245c-.185-.185-.5083-.1488-.635.0985-.7637 1.4908-.522 3.3643.7268 4.613 1.0434 1.0435 2.523 1.3837 3.8506 1.0222l4.2513 4.2513c.3775.3775.9896.3775 1.3671 0l1.4142-1.4142c.3775-.3775.3775-.9895 0-1.3671L9.6295 6.9769c.3615-1.3275.0213-2.8072-1.022-3.8505"/></svg>
